X: 98
T: Missa O salutaris hostia / Kyrie
N: Derived from Rue1022a-Missa_O_salutaris_hostia-Kyrie.krn
C: Pierre de la Rue
%%abc-version 2.0
%%abcx-abcm2ps-target-version 5.9.1 (29 Sep 2008)
%%abc-creator hum2abc beta
%%abcx-conversion-date 2019/02/17 08:01:13
%%abc-edited-by Jesse Rodin
%%abc-edited-by Chris Gage 03-28-2013
%%abcx-initial-encoding-date 2013/07/28/
%%humdrum-veritas 1729290954
%%humdrum-veritas-data 1230180769
%%linebreak <none>
%%barnumbers 0
L: 1/4
M: 2/1
Q: 1/2=120
%%staves [1 2 3 4]
V: 1 clef=treble
V: 2 clef=treble-8
V: 3 clef=treble-8
V: 4 clef=bass
K: F
[V:1] G8 | 
[V:2] z8 | 
[V:3] z8 | 
[V:4] z8 | 
[V:1] G8 | 
[V:2] z8 | 
[V:3] z8 | 
[V:4] z8 | 
[V:1] C4C4 | 
[V:2] c8 | 
[V:3] z8 | 
[V:4] z8 | 
[V:1] E2F2G4 | 
[V:2] c8 | 
[V:3] z8 | 
[V:4] z8 | 
[V:1] A4A2c2- | 
[V:2] F4F4 | 
[V:3] z8 | 
[V:4] z8 | 
[V:1] c2BAG4 | 
[V:2] A2B2c4 | 
[V:3] z8 | 
[V:4] z8 | 
[V:1] F4F3G | 
[V:2] d4d2f2- | 
[V:3] z8 | 
[V:4] z8 | 
[V:1] A2B2c4 | 
[V:2] f2edc4 | 
[V:3] z8 | 
[V:4] z8 | 
[V:1] d6cB | 
[V:2] B4B3c | 
[V:3] z8 | 
[V:4] z8 | 
[V:1] cBAGA4 | 
[V:2] d2e2f4 | 
[V:3] z8 | 
[V:4] z8 | 
[V:1] G2Bcd_ed2 | 
[V:2] g6fe | 
[V:3] G8 | 
[V:4] z8 | 
[V:1] d2c3=B=B2 | 
[V:2] fedcd4 | 
[V:3] G8 | 
[V:4] z8 | 
[V:1] c8 | 
[V:2] c2efgag2 | 
[V:3] C4C4 | 
[V:4] C,8 | 
[V:1] z8 | 
[V:2] g2f3ee2 | 
[V:3] E2F2G4 | 
[V:4] C,8 | 
[V:1] c4c2A2- | 
[V:2] f8 | 
[V:3] A4A2c2- | 
[V:4] F,,4F,,4 | 
[V:1] A2GFE4 | 
[V:2] z8 | 
[V:3] c2BAG4 | 
[V:4] A,,2B,,2C,4 | 
[V:1] F4A4- | 
[V:2] f4f2d2- | 
[V:3] F4F3G | 
[V:4] D,4D,2F,2- | 
[V:1] A4A4 | 
[V:2] d2cBA4 | 
[V:3] A2B2c4 | 
[V:4] F,2E,D,C,4 | 
[V:1] D8 | 
[V:2] B4d4- | 
[V:3] d6cB | 
[V:4] B,,4B,,3C, | 
[V:1] z8 | 
[V:2] d4d4 | 
[V:3] cBAGA4 | 
[V:4] D,2E,2F,4 | 
[V:1] D4G4- | 
[V:2] G8 | 
[V:3] G2Bcd_ed2 | 
[V:4] G,6F,E, | 
[V:1] G2FEF4 | 
[V:2] z8 | 
[V:3] d2c3=B=B2 | 
[V:4] F,E,D,C,D,4 | 
[V:1] E8 ||  
[V:2] G8 ||  
[V:3] c8 ||  
[V:4] C,8 ||  
[V:1]  [K:F] [K:clef=treble][M:2/1]z8 | 
[V:2]  [K:F] [K:clef=treble-8][M:2/1]z8 | 
[V:3]  [K:F] [K:clef=treble-8][M:2/1]c8 | 
[V:4]  [K:F] [K:clef=bass][M:2/1]z8 | 
[V:1] z8 | 
[V:2] z8 | 
[V:3] A4B4 | 
[V:4] z8 | 
[V:1] z8 | 
[V:2] z8 | 
[V:3] A8 | 
[V:4] F,8 | 
[V:1] z8 | 
[V:2] z8 | 
[V:3] z2d4^c2 | 
[V:4] D,4E,4 | 
[V:1] z8 | 
[V:2] z8 | 
[V:3] d4d2B2- | 
[V:4] D,8 | 
[V:1] z8 | 
[V:2] z8 | 
[V:3] B2AGA4 | 
[V:4] z2G,4^F,2 | 
[V:1] z8 | 
[V:2] z8 | 
[V:3] G8 | 
[V:4] G,4G,2E,2- | 
[V:1] z8 | 
[V:2] z8 | 
[V:3] c2c4=B2 | 
[V:4] E,2D,C,D,4 | 
[V:1] c8 | 
[V:2] z8 | 
[V:3] c4c2A2- | 
[V:4] C,8 | 
[V:1] A4B4 | 
[V:2] z8 | 
[V:3] A2F2G4 | 
[V:4] F,2F,4E,2 | 
[V:1] A8 | 
[V:2] f8 | 
[V:3] F8 | 
[V:4] F,4F,2D,2- | 
[V:1] z2d4c2 | 
[V:2] d4_e4 | 
[V:3] z8 | 
[V:4] D,2B,,2C,4 | 
[V:1] d4d2B2- | 
[V:2] d8 | 
[V:3] z8 | 
[V:4] B,,8 | 
[V:1] B2AGA4 | 
[V:2] z2g4^f2 | 
[V:3] z8 | 
[V:4] z8 | 
[V:1] G8 | 
[V:2] g4g2e2- | 
[V:3] z8 | 
[V:4] z8 | 
[V:1] c2c4=B2 | 
[V:2] e2dcd4 | 
[V:3] z4G4 | 
[V:4] z8 | 
[V:1] c4c2A2- | 
[V:2] c8 | 
[V:3] A4c4 | 
[V:4] z8 | 
[V:1] A2F2G4 | 
[V:2] f2f4e2 | 
[V:3] A3BG4 | 
[V:4] z4C,4 | 
[V:1] F8 | 
[V:2] f4f2d2- | 
[V:3] z4A4 | 
[V:4] D,4F,4 | 
[V:1] z8 | 
[V:2] d2B2c4 | 
[V:3] F2G2E4 | 
[V:4] D,3E,C,4 | 
[V:1] z8 | 
[V:2] B8 | 
[V:3] D2G2F2B2- | 
[V:4] z4D,4 | 
[V:1] z8 | 
[V:2] z8 | 
[V:3] BAG4^F2 | 
[V:4] B,,2C,2A,,4 | 
[V:1] z8 | 
[V:2] z8 | 
[V:3] G2A2G2c2- | 
[V:4] G,,2C,2B,,2_E,2- | 
[V:1] z4G4 | 
[V:2] z8 | 
[V:3] cBc2G4 | 
[V:4] E,D,C,4B,,2 | 
[V:1] A4c4 | 
[V:2] z8 | 
[V:3] z2F2A2A2- | 
[V:4] C,2D,2C,2F,2- | 
[V:1] A3BG4 | 
[V:2] z4c4 | 
[V:3] A2F2G4 | 
[V:4] F,E,F,2C,4 | 
[V:1] z4A4 | 
[V:2] d4f4 | 
[V:3] F8 | 
[V:4] z2B,,2D,2D,2- | 
[V:1] F2G2E4 | 
[V:2] d3ec4 | 
[V:3] B3GA4 | 
[V:4] D,2B,,2C,4 | 
[V:1] D2G2F2B2- | 
[V:2] z4d4 | 
[V:3] B4B2G2- | 
[V:4] B,,8 | 
[V:1] BAG4^F2 | 
[V:2] B2c2A4 | 
[V:3] GFG2D4 | 
[V:4] _E,3C,D,4 | 
[V:1] G8- | 
[V:2] G8- | 
[V:3] z4C4 | 
[V:4] _E,4E,2C,2- | 
[V:1] G8- | 
[V:2] G8- | 
[V:3] _E6D2 | 
[V:4] C,B,,C,2G,,4- | 
[V:1] G8 ||  
[V:2] G8 ||  
[V:3] D8 ||  
[V:4] G,,8 ||  
[V:1]  [K:F] [K:clef=treble][M:3/1]G8A3B | 
[V:2]  [K:F] [K:clef=treble-8][M:3/1]z12 | 
[V:3]  [K:F] [K:clef=treble-8][M:3/1]z12 | 
[V:4]  [K:F] [K:clef=bass][M:3/1]z12 | 
[V:1] c2c4BAB4 | 
[V:2] c8d3e | 
[V:3] z12 | 
[V:4] z12 | 
[V:1] A8G2B2- | 
[V:2] f2f4ede4 | 
[V:3] z12 | 
[V:4] z12 | 
[V:1] B2AGF3EG4 | 
[V:2] d8c2e2- | 
[V:3] z12 | 
[V:4] z12 | 
[V:1] G2FED4C4 | 
[V:2] e2dc=B3Ac4 | 
[V:3] G8A3B | 
[V:4] z12 | 
[V:1] z12 | 
[V:2] c2BAG4F4 | 
[V:3] c2c4BAB4 | 
[V:4] C,8D,3E, | 
[V:1] z12 | 
[V:2] z12 | 
[V:3] A8G2B2- | 
[V:4] F,2F,4E,D,E,4 | 
[V:1] z12 | 
[V:2] z12 | 
[V:3] B2AGF3EG4 | 
[V:4] D,8C,2_E,2- | 
[V:1] z4F4E4 | 
[V:2] z12 | 
[V:3] G2FED4C4 | 
[V:4] E,2D,C,B,,3A,,C,4 | 
[V:1] G6G2A4- | 
[V:2] z4B4A4 | 
[V:3] z12 | 
[V:4] C,2B,,A,,G,,4F,,4 | 
[V:1] A2GFE4D4 | 
[V:2] c6c2d4- | 
[V:3] z12 | 
[V:4] z12 | 
[V:1] z2A3Bc2d2d2- | 
[V:2] d2cBA4G4 | 
[V:3] z12 | 
[V:4] z12 | 
[V:1] d2cBA4G4 | 
[V:2] z2d3ef2g2g2- | 
[V:3] z4F4E4 | 
[V:4] z12 | 
[V:1] z4B4c4- | 
[V:2] g2fed4c4 | 
[V:3] G6G2A4- | 
[V:4] z4B,,4A,,4 | 
[V:1] c2BAG4F3G | 
[V:2] z4e4f4- | 
[V:3] A2GFE4D4 | 
[V:4] C,6C,2D,4- | 
[V:1] A8D2B2- | 
[V:2] f2edc4B3c | 
[V:3] z2A3Bc2d2d2- | 
[V:4] D,2C,B,,A,,4G,,4 | 
[V:1] B2AGA4z4 | 
[V:2] d8G2_e2- | 
[V:3] d2cBA4G4 | 
[V:4] z2D,3E,F,2G,2G,2- | 
[V:1] G4F4E4 | 
[V:2] e2dcd4z4 | 
[V:3] z4B4c4- | 
[V:4] G,2F,E,D,4C,4 | 
[V:1] G8A4- | 
[V:2] c4B4A4 | 
[V:3] c2BAG4F3G | 
[V:4] z4_E,4F,4- | 
[V:1] A2GFE4F3E | 
[V:2] c8d4- | 
[V:3] A8D2B2- | 
[V:4] F,2_E,D,C,4B,,3C, | 
[V:1] F2G3^FF2G4- | 
[V:2] d2cBA4B4- | 
[V:3] B2AGA4z4 | 
[V:4] D,8G,,4- | 
[V:1] G12 |]  
[V:2] B12 |]  
[V:3] G12 |]  
[V:4] G,,12 |]  



